fs/warning_16_regular.svg

<svg viewBox="0 0 16 16" fill="none" xmlns="http://www.w3.org/2000/svg" height="1em" width="1em">
  <path d="M8.75 10.25C8.75 10.6642 8.41421 11 8 11C7.58579 11 7.25 10.6642 7.25 10.25C7.25 9.83579 7.58579 9.5 8 9.5C8.41421 9.5 8.75 9.83579 8.75 10.25ZM7.5 8C7.5 8.27614 7.72386 8.5 8 8.5C8.27614 8.5 8.5 8.27614 8.5 8V5.5C8.5 5.22386 8.27614 5 8 5C7.72386 5 7.5 5.22386 7.5 5.5V8ZM6.90858 2.63741C7.38572 1.78391 8.6139 1.78404 9.09087 2.63763L13.8414 11.1393C14.307 11.9725 13.7046 12.999 12.7502 12.999H3.24693C2.29235 12.999 1.69005 11.9723 2.15584 11.1391L6.90858 2.63741ZM8.21791 3.12541C8.12251 2.9547 7.87687 2.95467 7.78145 3.12537L3.02871 11.6271C2.93555 11.7937 3.05601 11.999 3.24693 11.999H12.7502C12.9411 11.999 13.0615 11.7937 12.9684 11.6271L8.21791 3.12541Z" fill="#212121"/>
</svg>

<svg viewBox="0 0 16 16" fill="none" xmlns="http://www.w3.org/2000/svg" height="1em" width="1em">
  <path d="M8.75 10.25a.75.75 0 1 1-1.5 0 .75.75 0 0 1 1.5 0ZM7.5 8a.5.5 0 0 0 1 0V5.5a.5.5 0 0 0-1 0V8Zm-.591-5.363a1.25 1.25 0 0 1 2.182 0l4.75 8.502a1.25 1.25 0 0 1-1.09 1.86H3.246a1.25 1.25 0 0 1-1.091-1.86l4.753-8.502Zm1.309.488a.25.25 0 0 0-.437 0L3.03 11.627a.25.25 0 0 0 .218.372h9.503a.25.25 0 0 0 .218-.372l-4.75-8.502Z" fill="#212121"/>
</svg>
